X:15
T:Red-Haired Boy
M:4/4
K:A
L:1/8
AF |: "A" E2 A2 ABcd | efec "D" d2 (cd) | "A" edcB ABcA | "G" BAEF =G3 F |
"A" E2 A2 ABcd | efec "D" d2 (cd) | "A" e2 a2 aged |1 "(E)" c2 A2 "(A)" A3 F :|2 "(E)" c2 A2 "(A)" A2 (ef) |]
"G" =gfef gfef | =gfec "D" d2 (cd) | "A" edcB ABcA | "G" BAEF =G3 F |
"A" E2 A2 ABcd | efec "D" d2 (cd) | "A" e2 a2 aged |1 "(E)" c2 A2 "(A)" A2 (ef) :|2 "(E)" c2 A2 "(A)" A2 |]

